!!!COM: Paul Hindemith
!!!OTL: [T641_Hin-w35p11m1-13]
**kern	**dynam	**kern	**dynam	**kern	**dynam	**kern	**dynam
*grp:A	*grp:A	*grp:B	*grp:B	*grp:A	*grp:A	*grp:A	*grp:A
*part3	*	*part3	*part3	*part2	*part2	*part1	*
*staff4	*	*staff3	*	*staff2	*	*staff1	*
*I"Piano	*	*	*	*I"Heckelphone	*	*I"Viola	*
*I'Pno.	*	*	*	*I'Heckl.	*	*I'Vla.	*
*clefF4	*	*clefF4	*	*clefG2	*	*clefC3	*
*	*	*	*	*ITrd7c12	*	*	*
*k[]	*	*k[]	*	*k[]	*	*k[]	*
*	*	*	*	*	*	*	*
*M2/2	*	*M2/2	*	*M2/2	*	*M2/2	*
*met(c|)	*	*met(c|)	*	*met(c|)	*	*met(c|)	*
=1	=1	=1	=1	=1	=1	=1	=1
!	!	!	!LO:DY:t=%s staccatissimo	!	!	!LO:TX:a:B:t=Schnell Halbe ([half] = 126)	!
4DD'	.	4ryy	4ryy	2.d^	mf	1r	.
4AA-X'	.	4ryy	.	.	.	.	.
4GG'	.	4ryy	.	.	.	.	.
4BB-X'	.	4ryy	.	[4d^	.	.	.
=2	=2	=2	=2	=2	=2	=2	=2
4AA'	.	4ryy	.	8d]	.	1r	.
.	.	.	.	8r	.	.	.
4DD'	.	4r'yy	.	([4d^	<	.	.
4AA'	.	4ryy	.	8dL]	.	.	.
.	.	.	.	8eJ	.	.	.
4FFn'	.	4ryy	.	4f#X')	[	.	.
=3	=3	=3	=3	=3	=3	=3	=3
4Cn'	.	4ryy	.	4e'	.	1r	.
4GG'	.	4ryy	.	4d'	>	.	.
4DD'	.	4r'yy	.	4c#X'	.	.	.
4FF#X'	.	4ryy	.	([4B^	.	.	.
=4	=4	=4	=4	=4	=4	=4	=4
4EE'	.	4ryy	.	2B]	.	1r	.
4BB'	.	4ryy	.	.	.	.	.
4FFn'	.	4ryy	.	4A')	]	.	.
4DD'	.	4ryy	.	4B'	.	.	.
=5	=5	=5	=5	=5	=5	=5	=5
4BB-X'	.	4ryy	.	2cn	.	1r	.
4GG'	.	4ryy	.	.	.	.	.
4C#X'	.	4ryy	.	(4B-X	<	.	.
4FF#X'	.	4ryy	.	4c	[	.	.
=6	=6	=6	=6	=6	=6	=6	=6
4DD'	.	4r'yy	.	4e)	.	1r	.
4BBn'	.	4ryy	.	2d#X^	.	.	.
4FFn'	.	4ryy	.	.	.	.	.
4D'	.	4ryy	.	(4B-X	.	.	.
!!linebreak:original
=7	=7	=7	=7	=7	=7	=7	=7
4AA-X'	.	4ryy	4ryy	4c	<	1r	.
4DD'	.	4r'yy	.	4e	.	.	.
4AAn'	.	4ryy	.	4g)	[	.	.
4FF#X'	.	4ryy	4ryy	[4f#X^	.	.	.
=8	=8	=8	=8	=8	=8	=8	=8
4C#X'	.	4ryy	.	8f#]	.	1r	.
.	.	.	.	8r	.	.	.
4EE'	.	4ryy	.	(4a	f >	.	.
4DD'	.	4r'yy	.	2f^)	]	.	.
4AA-X'	.	4ryy	.	.	.	.	.
=9	=9	=9	=9	=9	=9	=9	=9
4GG'	.	4ryy	.	2f^	.	1r	.
4BB-X'	.	4ryy	.	.	.	.	.
4AAn'	.	4ryy	.	(4e	<	.	.
4DD'	.	4r'yy	.	4d	[	.	.
=10	=10	=10	=10	=10	=10	=10	=10
4AA'	.	4ryy	.	4f')	.	1r	.
4FF'	.	4ryy	.	4e'	.	.	.
4Cn'	.	4ryy	.	(4e^	.	.	.
4GGn'	.	4ryy	.	[4d	.	.	.
=11	=11	=11	=11	=11	=11	=11	=11
4DD'	.	4r'yy	.	8d])	.	1r	.
.	.	.	.	8r	.	.	.
4FF#X'	.	4ryy	4ryy	(4e-X	.	.	.
4EE'	.	4ryy	.	2c^)	>	.	.
4BB'	.	4ryy	.	.	.	.	.
=12	=12	=12	=12	=12	=12	=12	=12
4FFn'	.	4ryy	.	2.c^	.	1r	.
4DD'	.	4r'yy	.	.	.	.	.
4BB-X'	.	4ryy	.	.	.	.	.
4GGn'	.	4ryy	4ryy	(4d	]	.	.
!!LO:REH:t=A
=13	=13	=13	=13	=13	=13	=13	=13
4C#X'	.	4ryy	.	2B^)	.	1r	.
4FF#X'	.	4ryy	.	.	.	.	.
4DD'	.	4r'yy	.	(4.B	f <	.	.
4BBn'	.	4ryy	.	.	.	.	.
.	.	.	.	8c#X	[	.	.
=	=	=	=	=	=	=	=
*-	*-	*-	*-	*-	*-	*-	*-
!!!system-decoration: s1,s2[({(s3,s4)})]
!!!EED: Daniel Wright
!!!EEV: 2021/08/27
